static/img/svg/detail.svg

<svg xmlns="http://www.w3.org/2000/svg" width="24" height="24" viewBox="0 0 24 24"><path d="M6 7H18V9H6zM6 11H14.99V13H6zM6 15H12V17H6z"/><path d="M21,3H3C2.447,3,2,3.447,2,4v16c0,0.553,0.447,1,1,1h18c0.553,0,1-0.447,1-1V4C22,3.447,21.553,3,21,3z M20,19H4V5h16V19z"/></svg>

<svg xmlns="http://www.w3.org/2000/svg" width="24" height="24" viewBox="0 0 24 24"><path d="M6 7h12v2H6zM6 11h8.99v2H6zM6 15h6v2H6z"/><path d="M21 3H3a1 1 0 0 0-1 1v16a1 1 0 0 0 1 1h18a1 1 0 0 0 1-1V4a1 1 0 0 0-1-1zm-1 16H4V5h16v14z"/></svg>
